X:1
T:Someone Will Climb
T:Someone Will Climb
T:John Sylvester Fearis
T:William Crowle, 1908
T:Public Domain Courtesy of the Cyber Hymnal™
C:John Sylvester Fearis
Z:Public Domain
Z:Courtesy of the Cyber Hymnal™
%%score ( 1 2 ) ( 3 4 )
L:1/8
Q:1/4=93
M:4/4
K:Eb
V:1 treble 
V:2 treble 
V:3 bass 
V:4 bass 
V:1
"^Duet for Soprano (or Contralto) and Tenor" G2 ^FG A3 G | G2 F2 E4 | A2 EF G3 G | F2 =A2 B4 | %4
w: 1.~Some- one will climb life’s|rug- ged hills;|Some- one God’s pur- pose|will ful- fill;|
w: 2.~Some- one will sing the|heart’s glad song;|Some- one will help the|weak a- long;|
w: 3.~Some- one will guide the|lit- tle feet;|Some- one the aged with|kind- ness greet;|
 G2 ^FG c3 B | B2 A2 A4 x2 | =A2 ^GA d3 c | c2 B2 !fermata!B2 ||"^Refrain" GA | B6 G2 [FB]2 | %10
w: Some- one will ut- ter|wis- dom’s code;|Some- one will soft- en|sor- row’s road.|||
w: Some- one will light the|night of gloom;|Some- one will cheer the|sick one’s room.||Why not, why|
w: Some- one will love’s sweet|balm im- part,|Bless- ing the lone- ly,|dy- ing heart.|||
 B2 e2 B2 [EG][EG] | [DF]2 [FB][Fc] [FB]2 [E=A]2 | [DB]6 [DB][DA] | [EG]2 [EG][EG] [GB]2 [Ge]2 | %14
w: ||||
w: * * not? Why not|my tongue the Gos- pel|preach? Why not|my thoughts with wis- dom|
w: ||||
 ([A-e]4 !fermata![Ac])[Ee][Ed][Ec] | [EB]2 (GA) [DG]3 [DF] | [B,E]6 z2 |] %17
w: |||
w: shine? * Why not the|Christ- like * life be|mine?|
w: |||
V:2
 x8 | x8 | x8 | x8 | x8 | x10 | x8 | x6 || x2 | G2 F>D x6 | E4 G4 | x8 | x8 | x8 | x8 | x2 E2 x4 | %16
 x8 |] %17
V:3
 B,2 =A,B, C3 B, | B,2 A,2 [E,,E,G,]4 | C2 C_C B,3 E | D2 [B,,F,D]4 x2 | B,2 =A,B, E3 _D | %5
w: ~ ~ ~ ~ ~|~ ~ ~|~ ~ ~ ~ ~|~ ~|~ ~ ~ ~ ~|
 _D2 C2 C4 [_G,,_G,]2 | C2 =B,C F3 E | E2 D2 !fermata![B,,B,D]2 || B,C | %9
w: ~ ~ ~ ~|* ~ ~ ~ ~|~ ~ ~|~ Why|
 B,2 A,>F, B,2 [B,,A,]2 x2 | (G,2 B,2 [E,E]2) [E,B,][E,B,] | [F,B,]2 [F,D][F,E] [F,D]2 [F,C]2 | %12
w: not my feet the sum-|mit * * reach? *||
 [B,,B,]6 [B,,F,][B,,B,] | [E,B,]2 [E,B,][E,B,] [E,E]2 [E,_D]2 | %14
w: ||
 ([A,-C]4 !fermata![A,E])[A,,C][A,,B,][A,,A,] | [B,,G,]2 (B,C) [B,,B,]3 [B,,A,] | [E,G,]6 z2 |] %17
w: |||
V:4
 [E,,E,]8 | B,,4 x4 | [E,,E,]8 | [F,,F,]4 (CE) x2 | [E,,E,]8 | [A,,E,]4 [A,,A,]2 x4 | [F,,F,]8 | %7
 [B,,F,]4 x2 || x2 | B,,6 x4 | E,4 x4 | x8 | x8 | x8 | x8 | x2 B,,2 x4 | x8 |] %17

